X: 33
T:Gan Ainm
M:6/8
L:1/8
S:Sean Donelly, Portumna (accordian)
R:Jig
H:Played at a session in Peppers, Feakle.
H:Transcribed from memory, so may not be correct.
Z:Bernie Stocks
K:G
GBd gdB | ded d3 | BdB BAG | FAA A3 | GBd gdB | GBd g2e | dBG AGE | GAG G3 ::
gag gdB | ded def | gag gdB | ABA A3 | gag gdB | GBd g2e | dBG AGE | GAG G3 :|
